X: 12010
T: Eonach Mhic Coilín
R: reel
M: 4/4
K: Edorian
|:BEEE DEGA|BGcA dfed|BEEE DEGA|1 BedB A2GA:|2 BedB ADFA||
Beed BAGA|B/c/de fg/f/efd|Beed BAGA|BedB A2GA|
Beed BAGA|B/c/def ~g3a|bgaf gfed|BgdB A2GA||

